icons/solid/rss.svg

<svg width="24" height="24" viewBox="0 0 24 24" fill="none" xmlns="http://www.w3.org/2000/svg">
<path fill-rule="evenodd" clip-rule="evenodd" d="M5 1C2.79086 1 1 2.79086 1 5V19C1 21.2091 2.79086 23 5 23H19C21.2091 23 23 21.2091 23 19V5C23 2.79086 21.2091 1 19 1H5ZM5.00074 4.96158C5.02197 4.4097 5.48656 3.97953 6.03843 4.00075C8.3582 4.08997 11.8126 4.88416 14.715 7.00512C17.6637 9.15996 20 12.6601 20 18C20 18.5523 19.5523 19 19 19C18.4477 19 18 18.5523 18 18C18 13.3399 16.0029 10.4234 13.535 8.61991C11.0207 6.78254 7.97513 6.07672 5.96157 5.99928C5.40969 5.97805 4.97951 5.51346 5.00074 4.96158ZM5.00254 10.9288C5.04189 10.3779 5.52037 9.96321 6.07125 10.0026C7.38455 10.0964 9.32777 10.5935 10.9698 11.8087C12.6537 13.0547 14 15.0482 14 18C14 18.5523 13.5523 19 13 19C12.4477 19 12 18.5523 12 18C12 15.7519 11.013 14.3287 9.78016 13.4164C8.50557 12.4732 6.94879 12.0703 5.92875 11.9975C5.37787 11.9581 4.96319 11.4796 5.00254 10.9288ZM5 18C5 17.4477 5.44772 17 6 17H6.01C6.56228 17 7.01 17.4477 7.01 18C7.01 18.5523 6.56228 19 6.01 19H6C5.44772 19 5 18.5523 5 18Z" fill="currentColor"/>
</svg>

<svg width="24" height="24" fill="none" xmlns="http://www.w3.org/2000/svg"><path fill-rule="evenodd" clip-rule="evenodd" d="M5 1a4 4 0 00-4 4v14a4 4 0 004 4h14a4 4 0 004-4V5a4 4 0 00-4-4H5zm0 3.962A1 1 0 016.039 4c2.32.089 5.775.883 8.677 3.004C17.664 9.16 20 12.66 20 18a1 1 0 11-2 0c0-4.66-1.997-7.577-4.465-9.38C11.021 6.783 7.975 6.077 5.962 6A1 1 0 015 4.961zm.003 5.967a1 1 0 011.068-.926c1.314.093 3.257.59 4.899 1.806C12.654 13.055 14 15.049 14 18a1 1 0 11-2 0c0-2.248-.987-3.671-2.22-4.584-1.274-.943-2.831-1.346-3.851-1.418a1 1 0 01-.926-1.07zM5 18a1 1 0 011-1h.01a1 1 0 110 2H6a1 1 0 01-1-1z" fill="currentColor"/></svg>
